X:1063
M:3/8
L:1/8
Q:3/8=60
K:G
d/c/| BBA  | G3/ (g/f/e/)| dd^c  | d2  d/c/| BBA  | G2 Tg   |{a} gfe  | d2:|
d   |(ad).d|(bd).d       |(dc').b|(ba).g   |(gf).e|(df).g   |{b}(ag).f|Tg2:|

